icons/desktop/16/playback-speed-16.svg

<svg width="16" height="16" viewBox="0 0 16 16" fill="none" xmlns="http://www.w3.org/2000/svg">
<g clip-path="url(#clip0_22031_1029)">
<path d="M8 0C9.29492 0 10.5157 0.316296 11.5986 0.865234L10.4727 1.99121C9.70972 1.67627 8.87492 1.5 8 1.5C4.416 1.5 1.5 4.416 1.5 8C1.5 11.584 4.416 14.5 8 14.5C11.584 14.5 14.5 11.584 14.5 8C14.5 7.12409 14.3228 6.29028 14.0078 5.52734L15.1348 4.40137C15.6837 5.48432 16 6.70508 16 8C16 12.411 12.411 16 8 16C3.589 16 0 12.411 0 8C0 3.589 3.589 0 8 0Z" fill="black"/>
<path d="M6.68555 7.11621C7.29655 6.45821 12.0109 2.45348 12.6689 3.06348C13.3259 3.67533 9.67862 8.67071 9.06836 9.32812C8.45836 9.98513 7.42851 10.0241 6.77051 9.41309C6.11283 8.80216 6.07493 7.77415 6.68555 7.11621Z" fill="black"/>
</g>
<defs>
<clipPath id="clip0_22031_1029">
<rect width="16" height="16" fill="white"/>
</clipPath>
</defs>
</svg>

<!-- This Source Code Form is subject to the terms of the Mozilla Public
   - License, v. 2.0. If a copy of the MPL was not distributed with this
   - file, You can obtain one at http://mozilla.org/MPL/2.0/. -->
<svg xmlns="http://www.w3.org/2000/svg" width="16" height="16" fill="context-fill" fill-opacity="context-fill-opacity" viewBox="0 0 16 16">
    <path d="M8 0c1.295 0 2.516.316 3.599.865l-1.126 1.126A6.5 6.5 0 0 0 8 1.5 6.51 6.51 0 0 0 1.5 8c0 3.584 2.916 6.5 6.5 6.5s6.5-2.916 6.5-6.5c0-.876-.177-1.71-.492-2.473l1.127-1.126A7.94 7.94 0 0 1 16 8c0 4.411-3.589 8-8 8s-8-3.589-8-8 3.589-8 8-8" />
    <path d="M6.686 7.116c.61-.658 5.325-4.663 5.983-4.053.657.612-2.99 5.608-3.6 6.265a1.627 1.627 0 0 1-2.383-2.212" />
</svg>
